X: 31335
T: Paddy McMahon's
R: jig
M: 6/8
K: Dmajor
|:~f3 edB|BAF AFE|DFA AFA|BAF Ade|
fzf edB|BAF AFE|DFA AFA|Bdc d2z:|
|:~f3 afe|dBd BAF|BAF DAD|BAF E2z|
B/c/dB AFE|DFA BAF|Ade faf|edc d2z:|

